blockchains/elrond/logo.svg

<svg fill="none" height="250" viewBox="0 0 250 250" width="250" xmlns="http://www.w3.org/2000/svg" xmlns:xlink="http://www.w3.org/1999/xlink"><clipPath id="a"><path d="m0 0h250v250h-250z"/></clipPath><clipPath id="b"><path d="m0 0h250v250h-250z"/></clipPath><clipPath id="c"><path d="m51.7578 68.3594h146.484v113.281h-146.484z"/></clipPath><g clip-path="url(#a)"><g clip-path="url(#b)"><path d="m125 250c69.036 0 125-55.964 125-125 0-69.0365-55.964-125-125-125-69.0365 0-125 55.9635-125 125 0 69.036 55.9635 125 125 125z" fill="#000"/><g clip-path="url(#c)"><path d="m132.934 125 65.308-35.2088-10.986-21.2785-59.815 24.4167c-1.526.6123-3.28.6123-4.806 0l-59.8147-24.4167-10.9863 21.2785 65.308 35.2088-65.308 35.209 10.9863 21.279 59.8147-24.417c1.526-.612 3.28-.612 4.806 0l59.815 24.417 10.986-21.279z" fill="#23f7dd"/></g></g></g></svg>

<svg width="250" height="250" viewBox="0 0 250 250" fill="none" xmlns="http://www.w3.org/2000/svg">
<g clip-path="url(#clip0_8_239)">
<g clip-path="url(#clip1_8_239)">
<path d="M125 250C194.036 250 250 194.036 250 125C250 55.9635 194.036 0 125 0C55.9635 0 0 55.9635 0 125C0 194.036 55.9635 250 125 250Z" fill="black"/>
<g clip-path="url(#clip2_8_239)">
<path d="M132.934 125L198.242 89.7912L187.256 68.5127L127.441 92.9294C125.915 93.5417 124.161 93.5417 122.635 92.9294L62.8203 68.5127L51.834 89.7912L117.142 125L51.834 160.209L62.8203 181.488L122.635 157.071C124.161 156.459 125.915 156.459 127.441 157.071L187.256 181.488L198.242 160.209L132.934 125Z" fill="#23F7DD"/>
</g>
</g>
</g>
<defs>
<clipPath id="clip0_8_239">
<rect width="250" height="250" fill="white"/>
</clipPath>
<clipPath id="clip1_8_239">
<rect width="250" height="250" fill="white"/>
</clipPath>
<clipPath id="clip2_8_239">
<rect width="146.484" height="113.281" fill="white" transform="translate(51.7578 68.3594)"/>
</clipPath>
</defs>
</svg>
